public/assets/img/components/logo-tinker.svg

<svg xmlns="http://www.w3.org/2000/svg" width="332" height="80" viewBox="0 0 332 80">
  <defs>
    <linearGradient id="a" x1="50%" x2="50%" y1="0%" y2="100%">
      <stop stop-color="#F08346" offset="0%"/>
      <stop stop-color="#E96969" offset="100%"/>
    </linearGradient>
  </defs>
  <g fill="none" fill-rule="evenodd">
    <path fill="#2E2E2E" d="M105.273438,49.0878906 L116.470703,49.0878906 L116.470703,53.3242188 L100,53.3242188 L100,27.7304688 L105.273438,27.7304688 L105.273438,49.0878906 Z M130.181641,53.3242188 C129.947264,52.8671852 129.777344,52.2988315 129.671875,51.6191406 C128.4414,52.9902412 126.841807,53.6757812 124.873047,53.6757812 C123.009756,53.6757812 121.465826,53.1367241 120.241211,52.0585938 C119.016595,50.9804634 118.404297,49.621102 118.404297,47.9804688 C118.404297,45.9648337 119.15136,44.4179741 120.645508,43.3398438 C122.139656,42.2617134 124.298814,41.7167969 127.123047,41.7050781 L129.460938,41.7050781 L129.460938,40.6152344 C129.460938,39.7363237 129.235354,39.0332058 128.78418,38.5058594 C128.333006,37.978513 127.621099,37.7148438 126.648438,37.7148438 C125.792964,37.7148438 125.122073,37.9199198 124.635742,38.3300781 C124.149412,38.7402364 123.90625,39.3027308 123.90625,40.0175781 L118.826172,40.0175781 C118.826172,38.9160101 119.166012,37.8964891 119.845703,36.9589844 C120.525394,36.0214797 121.486322,35.2861355 122.728516,34.7529297 C123.970709,34.2197239 125.365227,33.953125 126.912109,33.953125 C129.255871,33.953125 131.116204,34.5419863 132.493164,35.7197266 C133.870124,36.8974668 134.558594,38.5527237 134.558594,40.6855469 L134.558594,48.9296875 C134.570313,50.734384 134.822263,52.0996047 135.314453,53.0253906 L135.314453,53.3242188 L130.181641,53.3242188 Z M125.980469,49.7910156 C126.730472,49.7910156 127.421872,49.6240251 128.054688,49.2900391 C128.687503,48.956053 129.156248,48.5078153 129.460938,47.9453125 L129.460938,44.6757812 L127.5625,44.6757812 C125.019519,44.6757812 123.666016,45.5546787 123.501953,47.3125 L123.484375,47.6113281 C123.484375,48.2441438 123.707029,48.7656229 124.152344,49.1757812 C124.597658,49.5859396 125.207027,49.7910156 125.980469,49.7910156 Z M149.148438,39.0683594 C148.457028,38.9746089 147.847659,38.9277344 147.320312,38.9277344 C145.398428,38.9277344 144.138675,39.5781185 143.541016,40.8789062 L143.541016,53.3242188 L138.460938,53.3242188 L138.460938,34.3046875 L143.259766,34.3046875 L143.400391,36.5722656 C144.419927,34.8261631 145.832022,33.953125 147.636719,33.953125 C148.199222,33.953125 148.72656,34.0292961 149.21875,34.1816406 L149.148438,39.0683594 Z M162.085938,53.3242188 C161.851561,52.8671852 161.681641,52.2988315 161.576172,51.6191406 C160.345697,52.9902412 158.746104,53.6757812 156.777344,53.6757812 C154.914053,53.6757812 153.370123,53.1367241 152.145508,52.0585938 C150.920892,50.9804634 150.308594,49.621102 150.308594,47.9804688 C150.308594,45.9648337 151.055657,44.4179741 152.549805,43.3398438 C154.043953,42.2617134 156.203111,41.7167969 159.027344,41.7050781 L161.365234,41.7050781 L161.365234,40.6152344 C161.365234,39.7363237 161.139651,39.0332058 160.688477,38.5058594 C160.237302,37.978513 159.525395,37.7148438 158.552734,37.7148438 C157.697261,37.7148438 157.02637,37.9199198 156.540039,38.3300781 C156.053709,38.7402364 155.810547,39.3027308 155.810547,40.0175781 L150.730469,40.0175781 C150.730469,38.9160101 151.070309,37.8964891 151.75,36.9589844 C152.429691,36.0214797 153.390619,35.2861355 154.632812,34.7529297 C155.875006,34.2197239 157.269524,33.953125 158.816406,33.953125 C161.160168,33.953125 163.020501,34.5419863 164.397461,35.7197266 C165.774421,36.8974668 166.462891,38.5527237 166.462891,40.6855469 L166.462891,48.9296875 C166.474609,50.734384 166.72656,52.0996047 167.21875,53.0253906 L167.21875,53.3242188 L162.085938,53.3242188 Z M157.884766,49.7910156 C158.634769,49.7910156 159.326169,49.6240251 159.958984,49.2900391 C160.5918,48.956053 161.060545,48.5078153 161.365234,47.9453125 L161.365234,44.6757812 L159.466797,44.6757812 C156.923815,44.6757812 155.570313,45.5546787 155.40625,47.3125 L155.388672,47.6113281 C155.388672,48.2441438 155.611326,48.7656229 156.056641,49.1757812 C156.501955,49.5859396 157.111324,49.7910156 157.884766,49.7910156 Z M177.220703,47.1191406 L180.753906,34.3046875 L186.0625,34.3046875 L179.646484,53.3242188 L174.794922,53.3242188 L168.378906,34.3046875 L173.6875,34.3046875 L177.220703,47.1191406 Z M196.820312,53.6757812 C194.031236,53.6757812 191.760751,52.8203211 190.008789,51.109375 C188.256827,49.3984289 187.380859,47.1191549 187.380859,44.2714844 L187.380859,43.7792969 C187.380859,41.8691311 187.749996,40.1611403 188.488281,38.6552734 C189.226566,37.1494065 190.272454,35.9892619 191.625977,35.1748047 C192.979499,34.3603475 194.523429,33.953125 196.257812,33.953125 C198.859388,33.953125 200.907219,34.7734293 202.401367,36.4140625 C203.895515,38.0546957 204.642578,40.3808443 204.642578,43.3925781 L204.642578,45.4667969 L192.53125,45.4667969 C192.695313,46.7089906 193.190426,47.7050744 194.016602,48.4550781 C194.842778,49.2050819 195.888666,49.5800781 197.154297,49.5800781 C199.111338,49.5800781 200.640619,48.8711008 201.742188,47.453125 L204.238281,50.2480469 C203.476559,51.3261773 202.445319,52.1669892 201.144531,52.7705078 C199.843743,53.3740265 198.402352,53.6757812 196.820312,53.6757812 Z M196.240234,38.0664062 C195.232417,38.0664062 194.415042,38.4062466 193.788086,39.0859375 C193.16113,39.7656284 192.759767,40.7382749 192.583984,42.0039062 L199.650391,42.0039062 L199.650391,41.5996094 C199.626953,40.4746037 199.322269,39.6044953 198.736328,38.9892578 C198.150388,38.3740204 197.318365,38.0664062 196.240234,38.0664062 Z M212.886719,53.3242188 L207.789062,53.3242188 L207.789062,26.3242188 L212.886719,26.3242188 L212.886719,53.3242188 Z M243.771484,29.5761719 L235,29.5761719 L235,53.3242188 L232.837891,53.3242188 L232.837891,29.5761719 L224.083984,29.5761719 L224.083984,27.7304688 L243.771484,27.7304688 L243.771484,29.5761719 Z M249.765625,53.3242188 L247.65625,53.3242188 L247.65625,34.3046875 L249.765625,34.3046875 L249.765625,53.3242188 Z M247.287109,28.8027344 C247.287109,28.4042949 247.416014,28.0673842 247.673828,27.7919922 C247.931642,27.5166002 248.283201,27.3789062 248.728516,27.3789062 C249.17383,27.3789062 249.528319,27.5166002 249.791992,27.7919922 C250.055665,28.0673842 250.1875,28.4042949 250.1875,28.8027344 C250.1875,29.2011739 250.055665,29.5351549 249.791992,29.8046875 C249.528319,30.0742201 249.17383,30.2089844 248.728516,30.2089844 C248.283201,30.2089844 247.931642,30.0742201 247.673828,29.8046875 C247.416014,29.5351549 247.287109,29.2011739 247.287109,28.8027344 Z M257.482422,34.3046875 L257.552734,37.5566406 C258.267582,36.3847598 259.158198,35.491214 260.224609,34.8759766 C261.291021,34.2607391 262.468744,33.953125 263.757812,33.953125 C265.796885,33.953125 267.314448,34.527338 268.310547,35.6757812 C269.306646,36.8242245 269.810547,38.5468635 269.822266,40.84375 L269.822266,53.3242188 L267.730469,53.3242188 L267.730469,40.8261719 C267.71875,39.1269446 267.358402,37.8613323 266.649414,37.0292969 C265.940426,36.1972615 264.806648,35.78125 263.248047,35.78125 C261.947259,35.78125 260.795903,36.1884725 259.793945,37.0029297 C258.791987,37.8173869 258.050784,38.9160087 257.570312,40.2988281 L257.570312,53.3242188 L255.478516,53.3242188 L255.478516,34.3046875 L257.482422,34.3046875 Z M279.771484,43.7441406 L277.363281,46.0644531 L277.363281,53.3242188 L275.253906,53.3242188 L275.253906,26.3242188 L277.363281,26.3242188 L277.363281,43.6035156 L279.349609,41.4589844 L286.626953,34.3046875 L289.28125,34.3046875 L281.212891,42.3203125 L289.984375,53.3242188 L287.470703,53.3242188 L279.771484,43.7441406 Z M299.898438,53.6757812 C298.281242,53.6757812 296.819342,53.2773477 295.512695,52.4804688 C294.206048,51.6835898 293.189457,50.5732493 292.462891,49.1494141 C291.736324,47.7255788 291.373047,46.1289151 291.373047,44.359375 L291.373047,43.6035156 C291.373047,41.7753815 291.727536,40.1289136 292.436523,38.6640625 C293.145511,37.1992114 294.132806,36.0478558 295.398438,35.2099609 C296.664069,34.3720661 298.035149,33.953125 299.511719,33.953125 C301.820324,33.953125 303.65136,34.7412031 305.004883,36.3173828 C306.358405,37.8935626 307.035156,40.0468613 307.035156,42.7773438 L307.035156,43.9550781 L293.464844,43.9550781 L293.464844,44.359375 C293.464844,46.5156358 294.083002,48.3115163 295.319336,49.7470703 C296.55567,51.1826244 298.111319,51.9003906 299.986328,51.9003906 C301.111334,51.9003906 302.104488,51.6953146 302.96582,51.2851562 C303.827153,50.8749979 304.609371,50.2187545 305.3125,49.3164062 L306.630859,50.3183594 C305.083977,52.5566518 302.839858,53.6757812 299.898438,53.6757812 Z M299.511719,35.7460938 C297.92968,35.7460938 296.596685,36.3261661 295.512695,37.4863281 C294.428706,38.6464902 293.769532,40.2050683 293.535156,42.1621094 L304.943359,42.1621094 L304.943359,41.9335938 C304.884765,40.1054596 304.363286,38.6171932 303.378906,37.46875 C302.394526,36.3203068 301.105477,35.7460938 299.511719,35.7460938 Z M319.919922,36.0976562 C319.474607,36.0156246 319.000003,35.9746094 318.496094,35.9746094 C317.183587,35.9746094 316.073247,36.3408167 315.165039,37.0732422 C314.256831,37.8056677 313.609377,38.8691337 313.222656,40.2636719 L313.222656,53.3242188 L311.130859,53.3242188 L311.130859,34.3046875 L313.1875,34.3046875 L313.222656,37.328125 C314.335943,35.0781138 316.123035,33.953125 318.583984,33.953125 C319.169925,33.953125 319.632811,34.0292961 319.972656,34.1816406 L319.919922,36.0976562 Z"/>
    <circle cx="40" cy="40" r="40" fill="url(#a)"/>
    <path fill="#FFFFFF" d="M16,40 C16,40.9964486 16.0608339,41.9856406 16.1813851,42.9636698 L8.44005999,49.3365804 L16.1343142,62.6634196 L25.5252489,59.1452525 C27.1059682,60.3420866 28.8295414,61.3400121 30.6579679,62.1133327 L32.3057458,72 L47.6942542,72 L49.3420321,62.1133327 C51.1704586,61.3400121 52.8940318,60.3420866 54.4747511,59.1452525 L63.8656858,62.6634196 L71.55994,49.3365804 L63.8186149,42.9636698 C63.9391661,41.9856406 64,40.9964486 64,40 C64,39.0035514 63.9391661,38.0143594 63.8186149,37.0363302 L71.55994,30.6634196 L63.8656858,17.3365804 L54.4747511,20.8547475 C52.8940318,19.6579134 51.1704586,18.6599879 49.3420321,17.8866673 L47.6942542,8 L32.3057458,8 L30.6579679,17.8866673 C28.8295414,18.6599879 27.1059682,19.6579134 25.5252489,20.8547475 L16.1343142,17.3365804 L8.44005999,30.6634196 L16.1813851,37.0363302 C16.0608339,38.0143594 16,39.0035514 16,40 Z M13.5984158,29.7288853 L17.9041616,22.2711147 L26.2743309,25.406868 L27.1682139,24.6583459 C28.9414013,23.1735095 30.9580666,22.004737 33.1315492,21.2100077 L34.2259469,20.8098435 L35.6942542,12 L44.3057458,12 L45.7740531,20.8098435 L46.8684508,21.2100077 C49.0419334,22.004737 51.0585987,23.1735095 52.8317861,24.6583459 L53.7256691,25.406868 L62.0958384,22.2711147 L66.4015842,29.7288853 L59.5052888,35.4061399 L59.7043463,36.5527066 C59.9005425,37.6827923 60,38.8346238 60,40 C60,41.1653762 59.9005425,42.3172077 59.7043463,43.4472934 L59.5052888,44.5938601 L66.4015842,50.2711147 L62.0958384,57.7288853 L53.7256691,54.593132 L52.8317861,55.3416541 C51.0585987,56.8264905 49.0419334,57.995263 46.8684508,58.7899923 L45.7740531,59.1901565 L44.3057458,68 L35.6942542,68 L34.2259469,59.1901565 L33.1315492,58.7899923 C30.9580666,57.995263 28.9414013,56.8264905 27.1682139,55.3416541 L26.2743309,54.593132 L17.9041616,57.7288853 L13.5984158,50.2711147 L20.4947112,44.5938601 L20.2956537,43.4472934 C20.0994575,42.3172077 20,41.1653762 20,40 C20,38.8346238 20.0994575,37.6827923 20.2956537,36.5527066 L20.4947112,35.4061399 L13.5984158,29.7288853 Z M40,50 C45.5228475,50 50,45.5228475 50,40 C50,34.4771525 45.5228475,30 40,30 C34.4771525,30 30,34.4771525 30,40 C30,45.5228475 34.4771525,50 40,50 Z M40,46 C36.6862915,46 34,43.3137085 34,40 C34,36.6862915 36.6862915,34 40,34 C43.3137085,34 46,36.6862915 46,40 C46,43.3137085 43.3137085,46 40,46 Z"/>
  </g>
</svg>

<svg xmlns="http://www.w3.org/2000/svg" width="332" height="80" viewBox="0 0 332 80"><defs><linearGradient id="a" x1="50%" x2="50%" y1="0%" y2="100%"><stop stop-color="#F08346" offset="0%"/><stop stop-color="#E96969" offset="100%"/></linearGradient></defs><g fill="none" fill-rule="evenodd"><path fill="#2E2E2E" d="M105.273 49.088h11.198v4.236H100V27.73h5.273v21.358zm24.91 4.236c-.236-.457-.406-1.025-.51-1.705-1.232 1.37-2.83 2.056-4.8 2.056-1.863 0-3.407-.54-4.632-1.617-1.223-1.08-1.836-2.44-1.836-4.08 0-2.015.747-3.562 2.242-4.64 1.494-1.078 3.653-1.623 6.477-1.635h2.338v-1.09c0-.88-.225-1.582-.676-2.11-.45-.526-1.163-.79-2.136-.79-.855 0-1.526.205-2.012.615-.487.41-.73.973-.73 1.688h-5.08c0-1.102.34-2.122 1.02-3.06.68-.937 1.64-1.672 2.883-2.205 1.24-.533 2.635-.8 4.182-.8 2.344 0 4.204.59 5.58 1.767 1.378 1.177 2.067 2.833 2.067 4.966v8.244c.01 1.804.262 3.17.754 4.095v.3h-5.132zm-4.203-3.533c.75 0 1.442-.166 2.075-.5.633-.334 1.1-.782 1.406-1.345v-3.27h-1.898c-2.542 0-3.896.88-4.06 2.638l-.018.298c0 .634.223 1.156.668 1.566.446.41 1.055.615 1.828.615zm23.168-10.722c-.69-.093-1.3-.14-1.828-.14-1.922 0-3.18.65-3.78 1.95v12.446h-5.08v-19.02h4.8l.14 2.268c1.02-1.746 2.432-2.62 4.237-2.62.562 0 1.09.077 1.582.23l-.072 4.886zm12.938 14.256c-.234-.457-.404-1.025-.51-1.705-1.23 1.37-2.83 2.056-4.8 2.056-1.862 0-3.406-.54-4.63-1.617-1.225-1.08-1.837-2.44-1.837-4.08 0-2.015.746-3.562 2.24-4.64 1.494-1.078 3.653-1.623 6.477-1.635h2.338v-1.09c0-.88-.225-1.582-.677-2.11-.45-.526-1.163-.79-2.135-.79-.856 0-1.527.205-2.013.615-.486.41-.73.973-.73 1.688h-5.08c0-1.102.34-2.122 1.02-3.06.68-.937 1.64-1.672 2.883-2.205 1.242-.533 2.637-.8 4.183-.8 2.344 0 4.205.59 5.58 1.767 1.378 1.177 2.067 2.833 2.067 4.966v8.244c.012 1.804.264 3.17.756 4.095v.3h-5.134zm-4.2-3.533c.75 0 1.44-.166 2.073-.5.632-.334 1.1-.782 1.405-1.345v-3.27h-1.898c-2.543 0-3.897.88-4.06 2.638l-.018.298c0 .634.22 1.156.667 1.566.445.41 1.054.615 1.828.615zm19.335-2.67l3.534-12.815h5.31l-6.418 19.02h-4.85l-6.417-19.02h5.308l3.533 12.814zm19.6 6.556c-2.79 0-5.06-.856-6.81-2.567-1.753-1.712-2.63-3.99-2.63-6.84v-.49c0-1.91.37-3.62 1.108-5.125.74-1.506 1.784-2.666 3.138-3.48 1.353-.815 2.897-1.222 4.632-1.222 2.6 0 4.65.82 6.143 2.46 1.496 1.642 2.243 3.968 2.243 6.98v2.074H192.53c.165 1.242.66 2.238 1.487 2.988.826.75 1.872 1.125 3.137 1.125 1.957 0 3.487-.71 4.588-2.127l2.496 2.795c-.76 1.078-1.793 1.92-3.093 2.523-1.3.604-2.743.906-4.325.906zm-.58-15.61c-1.008 0-1.825.34-2.452 1.02-.627.68-1.028 1.652-1.204 2.918h7.066V41.6c-.023-1.125-.328-1.996-.914-2.61-.586-.616-1.418-.924-2.496-.924zm16.647 15.258h-5.098v-27h5.097v27zm30.884-23.748H235v23.748h-2.162V29.576h-8.754V27.73h19.687v1.846zm5.996 23.748h-2.11v-19.02h2.11v19.02zm-2.48-24.52c0-.4.13-.737.388-1.012s.61-.413 1.055-.413c.444 0 .798.137 1.062.412.264.275.395.612.395 1.01 0 .4-.13.733-.395 1.003-.264.27-.618.404-1.063.404-.447 0-.798-.136-1.056-.405-.258-.27-.387-.604-.387-1.002zm10.196 5.5l.07 3.253c.716-1.172 1.606-2.066 2.673-2.68 1.066-.616 2.244-.924 3.533-.924 2.04 0 3.556.574 4.553 1.723.997 1.148 1.5 2.87 1.512 5.168v12.48h-2.092V40.826c-.01-1.7-.372-2.965-1.08-3.797-.71-.833-1.843-1.25-3.402-1.25-1.3 0-2.452.408-3.454 1.223-1.002.814-1.743 1.913-2.224 3.296v13.024h-2.09v-19.02h2.002zm22.29 9.44l-2.41 2.32v7.26h-2.108v-27h2.11v17.28l1.986-2.145 7.277-7.155h2.654l-8.067 8.015 8.77 11.004h-2.512l-7.7-9.58zm20.126 9.932c-1.617 0-3.08-.4-4.385-1.196-1.307-.796-2.324-1.907-3.05-3.33-.727-1.424-1.09-3.02-1.09-4.79v-.756c0-1.83.355-3.475 1.064-4.94.71-1.465 1.696-2.616 2.96-3.454 1.267-.838 2.638-1.257 4.115-1.257 2.308 0 4.14.788 5.493 2.364 1.353 1.577 2.03 3.73 2.03 6.46v1.178h-13.57v.404c0 2.156.618 3.952 1.854 5.387 1.236 1.436 2.79 2.153 4.666 2.153 1.125 0 2.118-.205 2.98-.615.86-.41 1.643-1.066 2.346-1.97l1.32 1.003c-1.548 2.24-3.792 3.358-6.734 3.358zm-.386-17.93c-1.582 0-2.915.58-4 1.74-1.083 1.16-1.742 2.72-1.977 4.676h11.408v-.228c-.058-1.83-.58-3.317-1.564-4.465-.985-1.15-2.275-1.724-3.868-1.724zm20.408.352c-.445-.082-.92-.123-1.424-.123-1.312 0-2.423.366-3.33 1.098-.91.733-1.557 1.796-1.943 3.19v13.06h-2.092V34.306h2.058l.035 3.023c1.113-2.25 2.9-3.375 5.36-3.375.587 0 1.05.076 1.39.23l-.053 1.915z"/><circle cx="40" cy="40" r="40" fill="url(#a)"/><path fill="#FFF" d="M16 40c0 .996.06 1.986.18 2.964l-7.74 6.373 7.694 13.326 9.39-3.518c1.582 1.197 3.306 2.195 5.134 2.968L32.306 72h15.388l1.648-9.887c1.828-.773 3.552-1.77 5.133-2.968l9.39 3.518 7.695-13.326-7.74-6.373c.12-.978.18-1.968.18-2.964s-.06-1.986-.18-2.964l7.74-6.373-7.694-13.326-9.39 3.518c-1.582-1.197-3.306-2.195-5.134-2.968L47.694 8H32.306l-1.648 9.887c-1.828.773-3.552 1.77-5.133 2.968l-9.39-3.518L8.44 30.663l7.74 6.373c-.12.978-.18 1.968-.18 2.964zm-2.402-10.27l4.306-7.46 8.37 3.137.894-.75c1.773-1.483 3.79-2.652 5.964-3.447l1.094-.4L35.694 12h8.612l1.468 8.81 1.094.4c2.174.795 4.19 1.964 5.964 3.448l.894.75 8.37-3.137 4.306 7.46-6.897 5.676.2 1.147C59.9 37.683 60 38.835 60 40s-.1 2.317-.296 3.447l-.2 1.147 6.898 5.677-4.306 7.46-8.37-3.137-.894.75c-1.773 1.483-3.79 2.652-5.964 3.447l-1.094.4L44.306 68h-8.612l-1.468-8.81-1.094-.4c-2.174-.795-4.19-1.964-5.964-3.448l-.894-.75-8.37 3.137-4.306-7.46 6.897-5.676-.2-1.147C20.1 42.317 20 41.165 20 40s.1-2.317.296-3.447l.2-1.147-6.898-5.677zM40 50c5.523 0 10-4.477 10-10s-4.477-10-10-10-10 4.477-10 10 4.477 10 10 10zm0-4c-3.314 0-6-2.686-6-6s2.686-6 6-6 6 2.686 6 6-2.686 6-6 6z"/></g></svg>
